X:2
T:Laisserons nous  notre table - E161
M:4/4
K:Cm
"Dom"C2CD E3E|G2E2 "Fam"E2D2|"Sol"=B,2B,C D3F|E2D2 "Dom"C4|"Mib"E2EF G3G|"Fam"A2G2 F4|
"Sol"G2GF "Dom"E3D|"Fam"E2F2 "Sol"G4||[K:C]"Do"E2EF "Do7M"G3G|"Do6"c2G2 "Rem"G2F2|\
"Sol"D2DE F3A|G2F2 "Do"E4|
"Do"E2EF "Do7m"G3G|"Do6"c3B2 "Fa"B2A2|c2BA "Do"G3E|"Rem"C2D2 "Mi"E4|"Fa"c2BA "Do"G3E|\
"Sol"E2D2 "Do"C4||
